src/resources/assets/send.svg

<svg xmlns="http://www.w3.org/2000/svg" width="16" height="16"><path d="M 1.175781 1.117188 C 1.328125 0.988281 1.542969 0.964844 1.722656 1.054688 L 14.722656 7.554688 C 14.894531 7.636719 15 7.8125 15 8 C 15 8.1875 14.894531 8.363281 14.722656 8.445312 L 1.722656 14.945312 C 1.542969 15.035156 1.328125 15.011719 1.175781 14.882812 C 1.023438 14.753906 0.964844 14.542969 1.023438 14.351562 L 2.976562 8 L 1.023438 1.648438 C 0.964844 1.457031 1.023438 1.246094 1.175781 1.117188 Z M 3.871094 8.5 L 2.320312 13.53125 L 13.382812 8 L 2.320312 2.46875 L 3.871094 7.5 L 9.5 7.5 C 9.777344 7.5 10 7.722656 10 8 C 10 8.277344 9.777344 8.5 9.5 8.5 Z M 3.871094 8.5" fill="#ddd"/></svg>

<svg xmlns="http://www.w3.org/2000/svg" width="16" height="16"><path d="M1.176 1.117a.5.5 0 01.547-.062l13 6.5A.493.493 0 0115 8a.493.493 0 01-.277.445l-13 6.5a.5.5 0 01-.547-.062c-.153-.13-.211-.34-.153-.531L2.977 8 1.023 1.648a.504.504 0 01.153-.53zM3.87 8.5l-1.55 5.031L13.382 8 2.32 2.469 3.871 7.5H9.5c.277 0 .5.223.5.5s-.223.5-.5.5zm0 0" fill="#ddd"/></svg>
